X:445
T:Mairi's Wedding
C:Trad. Scotland (1908)
Q:1/2=112
M:2/2
L:1/4
K:G
%%textfont Times-Roman-Bold 20
%%center Play  ABBAB
P:A
"G"D3/D/ DE | "Em"GA B2 | "Am"AG EG | "D7"BA B/d3/ |\
"G"D3/D/ DE | "Em"GA B2 | "Am"AG EC | "D7"D2 D2 ||
P:B
"G"d3/d/ de | "Em"dc B2 | "C"AG EG | "D"BA B/d3/ |\
"G"d3/d/ de | "Em"dc B2 | "C"AG EC | "D"D2 D2 |]
N:Replace by blank line and X field
T:The Barren Rocks of Aden
S:Colin Hume's website,  colinhume.com  - chords can also be printed below the stave.
Q:1/2=112
M:2/2
L:1/4
%%MIDI ratio 3 1
K:D
P:A
d/e/ | "D"f>g fe | "D"df A>d | "A7"ce Ad/e/ | "D"fA de |\
"D"f>g fe | "D"df A>d | "A7"ce Af/e/ | "D"d3 ||
P:B
f/g/ | "D"a>f df | "A7"ef Ae/f/ | "A7"g>e ce | "D"df "A7"Af/g/ |\
"D"a>f df | "A7"ef Ae/f/ | "A7"ge ce | "D"d3 |]

